X:68
T:Female Robber - Snow
%%VWML:SBG-1-2-204-0
F:http://www.vwml.org/record/SBG/1/2/204
Z:Original Sibelius transcriptions by M. & S. Graebe
M:4/4
I:linebreak $
K:D
V:1 treble nm="P1"
V:1
 D | D2 F A A2 B A | F2 D4 z D | F2 A A B2 F F | E6 z D | E2 F A B2 A A |$ F2 D4 z D | %7
 D2 D D D2 E F | G3 E C2 z A, | D2 E F E2 D C | D4 z2 z x | %11
T:Female Robber - Peake
F:http://www.vwml.org/record/SBG/1/2/204
Z:Original Sibelius transcriptions by M. & S. Graebe
L:1/8
M:3/4
I:linebreak $
K:C
V:1 treble nm="P1"
V:2 treble 
L:1/4
V:1
 G2 | Bd d2 cA | GG G2 B2 | cc c2 BA | Bc d2 d2 |$ Bd g2 ec | ee d3 G | Bd d2 cA | GG G2 x2 | %9
V:2
 x | x3 | x/ F/ x x | x3 | x3 |$ x3 | x3 | x3 | x3 | %9
T:Female Robber - Hard
%%VWML:SBG-1-2-204-0
F:http://www.vwml.org/record/SBG/1/2/204
Z:Original Sibelius transcriptions by M. & S. Graebe
M:4/4
I:linebreak $
K:D
V:1 treble nm="P1"
V:1
 A | d2 c d e2 d B | A2 F2 z2 d | c2 d e c2 B c | d4 z2 d |$ f2 e d e2 d c | d2 A2 z2 B | %7
 A2 f e c2 B c | d4 z3 x | %9

